16x16/apps/lutris_super-meat-boy.svg

<svg xmlns="http://www.w3.org/2000/svg" width="16" height="16" version="1.1">
 <path style="fill:#e84343" d="M 8,0 C 5.6099616,0.06566364 2.9368476,0.43331268 0.87402344,0.96138596 0.31143444,1.1077275 0.10078648,1.188919 0,1.3430125 V 15.241628 C 0,15.741353 3.00001,15.991437 3.4843752,16 4.00001,15.991437 6.4,15.741353 6.4,15.241628 V 13.6 H 8 9.6 v 1.641628 C 9.6,15.741353 11.99999,15.991437 12.515625,16 12.99999,15.991437 16,15.741353 16,15.241628 V 1.3430125 C 15.899214,1.188919 15.688566,1.1077275 15.125976,0.96138596 13.063152,0.43331268 10.390038,0.06566364 8,0 Z"/>
 <path style="fill:#2f2f2f" d="M 3.3189975,6.5 C 4.229794,6.4136435 4.2261285,6.404321 5.8443039,6.2757675 6.0197744,5.7890315 6.1787514,5.4975785 5.5400944,4.5908356 4.8368384,3.5805636 3.7075065,4.0157801 3.249359,4.7787591 2.8576435,5.635454 2.9630175,6.1742005 3.3189975,6.5 m 0,0"/>
 <path style="fill:#f4f4f7" d="M 5,5.5000005 C 5,5.773942 4.7764505,6 4.5000005,6 4.2235495,6 4,5.773942 4,5.5000005 4,5.226058 4.2235495,5 4.5000005,5 4.7764505,5 5,5.226058 5,5.5000005 m 0,0"/>
 <path style="fill:#2f2f2f" d="m 10.235943,5.9930875 c 0.92102,0.017168 2.264061,-0.00305 2.38113,-0.00305 0.375743,-0.2658223 0.640049,-1.3025296 -0.02429,-2.3231775 -0.729102,-1.1402673 -1.904905,-0.6490494 -2.38113,0.2121044 -0.407174,0.9669292 -0.128582,1.6062875 0.02428,2.1080273"/>
 <path style="fill:#f4f4f7" d="M 12,4.5000005 C 12,4.778397 11.775685,5 11.498287,5 11.224315,5 11,4.778397 11,4.5000005 c 0,-0.273942 0.224315,-0.5 0.498287,-0.5 0.277398,0 0.501713,0.226058 0.501713,0.5 m 0,0"/>
 <path style="fill:#2f2f2f" d="m 3,7.2140013 c 3.3220833,-0.2251454 6.6504167,-0.3398194 10,0 C 12.448333,10.886574 10.428333,10.9268 8.4166667,10.985037 6.1541667,11.14474 3.4,10.035224 3,7.2140013 m 0,0"/>
 <path style="fill:#f4f4f7" d="m 4.0000007,8.7002982 c 0.037101,0.1532168 -0.061629,0.3131862 0.1045061,0.4104396 1.0289664,0.5998987 2.9599271,0.8664077 4.2704579,0.8889287 1.7343193,0.0078 3.1013273,-0.118751 3.5667523,-0.6411889 0.101413,-0.1146564 0.03796,-0.5000569 0.04581,-0.6706767 l -0.97666,-0.020133 0.97666,-0.077461 V 8.0317379 H 7.002785 L 6.997215,9 H 6.0046 l -0.0092,-0.9999968 -1.9935356,-3e-7 0.00184,0.631706 0.750084,0.021497"/>
 <path style="fill:#cd5d82" d="m 3.0087563,6.5261448 v 0.028551 c -0.011675,0.035348 -0.011675,0.074325 0,0.1096752 0.011675,0.044415 0.039615,0.079761 0.069582,0.1151123 0.1112314,0.1223635 0.2818879,0.1985015 0.4561001,0.2161763 0.1767513,0.017676 0.357058,-0.019491 0.5140012,-0.095625 0.1371352,-0.065715 0.2559852,-0.1577144 0.3926119,-0.2247878 0.1330718,-0.062088 0.2757933,-0.095625 0.428673,-0.104236 0.2183998,-0.00907 0.4362916,0.040791 0.6587549,0.019491 0.1092001,-0.00907 0.2163682,-0.037162 0.3057594,-0.095625 0.04368,-0.028552 0.083296,-0.063902 0.1112313,-0.1028763 0.032,-0.046223 0.049775,-0.090187 0.05333,-0.1418513 0.0061,-0.060278 -0.011674,-0.1187409 -0.039614,-0.1735776 C 5.9312509,6.0235473 5.8875713,5.9755083 5.8403358,5.9347204 5.7433256,5.8513312 5.6259996,5.7915095 5.514768,5.7239824 5.455343,5.6868173 5.3938864,5.6460325 5.3202397,5.6265451 5.2349116,5.60343 5.139933,5.619295 5.0485098,5.60887 4.9514998,5.5998075 4.8641395,5.5644549 4.7727164,5.5417964 4.5863147,5.4923962 4.3877234,5.4887714 4.1952272,5.5204963 4.004762,5.5504064 3.8244553,5.62156 3.6593856,5.7153723 3.5024429,5.8037456 3.3576892,5.9206712 3.2865826,6.0711334 c -0.013715,0.02991 -0.02387,0.06209 -0.039615,0.092 C 3.1916066,6.295921 3.1083094,6.4182848 3.0087598,6.5261463"/>
 <g transform="rotate(-45,6.75,5.517767)">
  <path style="fill:none;stroke:#efefef;stroke-width:1px" d="M 8,1 V 4 4"/>
  <path style="fill:none;stroke:#efefef;stroke-width:1px" d="m 9.5,2.5 h -3 v 0"/>
 </g>
</svg>

<svg xmlns="http://www.w3.org/2000/svg" width="16" height="16"><path style="fill:#e84343" d="M8 0C5.61.066 2.937.433.874.961c-.563.147-.773.228-.874.382v13.899c0 .5 3 .75 3.484.758.516-.009 2.916-.259 2.916-.758V13.6h3.2v1.642c0 .5 2.4.75 2.916.758C13 15.991 16 15.741 16 15.242V1.343c-.1-.154-.311-.235-.874-.382C13.063.433 10.39.066 8 0z"/><path style="fill:#2f2f2f" d="M3.319 6.5c.91-.086.907-.096 2.525-.224.176-.487.335-.778-.304-1.685-.703-1.01-1.832-.575-2.29.188-.392.856-.287 1.395.069 1.721m0 0"/><path style="fill:#f4f4f7" d="M5 5.5a.501.501 0 0 1-1 0 .501.501 0 0 1 1 0m0 0"/><path style="fill:#2f2f2f" d="M10.236 5.993c.921.017 2.264-.003 2.381-.003.376-.266.64-1.302-.024-2.323-.73-1.14-1.905-.65-2.381.212-.408.967-.129 1.606.024 2.108"/><path style="fill:#f4f4f7" d="M12 4.5a.5.5 0 1 1-.998.002A.5.5 0 0 1 12 4.5m0 0"/><path style="fill:#2f2f2f" d="M3 7.214c3.322-.225 6.65-.34 10 0-.552 3.673-2.572 3.713-4.583 3.771-2.263.16-5.017-.95-5.417-3.771m0 0"/><path style="fill:#f4f4f7" d="M4 8.7c.037.154-.062.313.105.41 1.028.6 2.96.867 4.27.89 1.734.007 3.101-.12 3.567-.642.101-.114.038-.5.046-.67l-.977-.02.977-.078v-.558H7.003L6.997 9h-.992l-.01-1H4.002l.002.632.75.021"/><path style="fill:#cd5d82" d="M3.009 6.526v.029a.176.176 0 0 0 0 .11.3.3 0 0 0 .07.114.721.721 0 0 0 .455.217.969.969 0 0 0 .514-.096c.138-.066.256-.158.393-.225.133-.062.276-.095.429-.104.218-.01.436.04.658.02a.655.655 0 0 0 .306-.096.42.42 0 0 0 .111-.103A.273.273 0 0 0 6 6.25a.314.314 0 0 0-.04-.173.508.508 0 0 0-.119-.142c-.097-.084-.214-.143-.325-.211-.06-.037-.121-.078-.195-.097-.085-.024-.18-.008-.271-.018-.098-.01-.185-.045-.276-.067a1.385 1.385 0 0 0-.578-.022c-.19.03-.37.102-.536.195-.157.089-.301.206-.372.356-.014.03-.024.062-.04.092a1.25 1.25 0 0 1-.238.363"/><path style="fill:none;stroke:#efefef;stroke-width:1px" d="M8 1v3M9.5 2.5h-3" transform="rotate(-45 6.75 5.518)"/></svg>
